!!!SOCIAL_FUNCTION:	songs of social dances
!!!PDT:	1958
!!!OTL: No_19_Social_Dance_Song_(g).krn
!!!REG: Northern California
!!!LANG: Non-Tone
!!!LING_GROUP: Penutian
**kern
*staff1
=1-
*clefF4
*k[b-e-a-d-]
*M2/4
16F\LL
16F\J
8F\J
16E-\LL
16E-\
16C\JJ
16r
=2
8C\L
16F\L
16F\JJ
8.F\L
16F\Jk
=3
16F\LL
16F\J
8F\J
16E-\LL
16E-\
16C\JJ
16r
=4
8C\L
16F\L
16F\JJ
8F\
8r
=5
=
*M3/4
16G\LL
16G\J
8G\J
8G\L
16.F\L
32G\JJk
8F\
8r
=6
16G\LL
16G\J
8G\J
8G\L
16.F\L
32G\JJk
8.F\L
16G\Jk
=7
*M2/4
16F\LL
16F\J
8F\J
16E-\LL
16E-\
16C\JJ
16r
=8
8C\L
16F\L
16F\JJ
8.F\L
16G\Jk
=9
16F\LL
16F\J
8F\J
16E-\LL
16E-\
16C\JJ
16r
=10
8C\L
16F\L
16F\JJ
8F\
8r
==:|!
*-
